X: 34
T:Boatie Rows
% Nottingham Music Database
S:Kevin Briggs, via EF
M:4/4
L:1/4
K:D
D/2E/2|"D"FA "A7/e"A3/2B/2|"D/f+"Ad "G"e/2d/2c/2B/2|"D"AF FE/2D/2|
"E7"F2 "A7"ED/2E/2|"D"FA "A7/e"A3/2B/2|"D/f+"Ad "G"e/2d/2c/2B/2|"D/a"AF "A7"EF\
|"D"D3:||:
A3/2B3/2c3/2|"D"dA "A7"AB/2c/2|"D"dA Ad|"Em"B3/2A/2 "d"Bd|"A7/c+"e3d/2e/2|\
"D"fd "G"Bd|"D"Ad "G"B/2A/2G/2F/2|"Em"E3/2D/2 "A7"EF|"D"D3:|


